; G-Code generated by Simplify3D(R) Version 4.0.1
; Jun 6, 2019 at 4:20:18 PM
; Settings Summary
;   processName,Process1
;   applyToModels,Æ¤¿¨Çð
;   profileName,Default (modified)
;   profileVersion,2017-03-01 08:00:00
;   baseProfile,
;   printMaterial,PLA
;   printQuality,Medium
;   printExtruders,
;   extruderName,Primary Extruder
;   extruderToolheadNumber,0
;   extruderDiameter,0.4
;   extruderAutoWidth,0
;   extruderWidth,0.4
;   extrusionMultiplier,1
;   extruderUseRetract,1
;   extruderRetractionDistance,10
;   extruderExtraRestartDistance,0
;   extruderRetractionZLift,0.2
;   extruderRetractionSpeed,4800
;   extruderUseCoasting,0
;   extruderCoastingDistance,0.2
;   extruderUseWipe,0
;   extruderWipeDistance,5
;   primaryExtruder,0
;   layerHeight,0.15
;   topSolidLayers,8
;   bottomSolidLayers,8
;   perimeterOutlines,3
;   printPerimetersInsideOut,1
;   startPointOption,2
;   startPointOriginX,0
;   startPointOriginY,0
;   sequentialIslands,0
;   spiralVaseMode,0
;   firstLayerHeightPercentage,90
;   firstLayerWidthPercentage,100
;   firstLayerUnderspeed,0.5
;   useRaft,0
;   raftExtruder,0
;   raftTopLayers,3
;   raftBaseLayers,2
;   raftOffset,3
;   raftSeparationDistance,0.14
;   raftTopInfill,100
;   aboveRaftSpeedMultiplier,0.3
;   useSkirt,1
;   skirtExtruder,0
;   skirtLayers,1
;   skirtOutlines,3
;   skirtOffset,4
;   usePrimePillar,0
;   primePillarExtruder,999
;   primePillarWidth,12
;   primePillarLocation,7
;   primePillarSpeedMultiplier,1
;   useOozeShield,0
;   oozeShieldExtruder,999
;   oozeShieldOffset,2
;   oozeShieldOutlines,1
;   oozeShieldSidewallShape,1
;   oozeShieldSidewallAngle,30
;   oozeShieldSpeedMultiplier,1
;   infillExtruder,0
;   internalInfillPattern,Rectilinear
;   externalInfillPattern,Rectilinear
;   infillPercentage,13
;   outlineOverlapPercentage,15
;   infillExtrusionWidthPercentage,100
;   minInfillLength,5
;   infillLayerInterval,1
;   internalInfillAngles,45,-45
;   overlapInternalInfillAngles,0
;   externalInfillAngles,45,-45
;   generateSupport,1
;   supportExtruder,0
;   supportInfillPercentage,30
;   supportExtraInflation,0
;   supportBaseLayers,0
;   denseSupportExtruder,0
;   denseSupportLayers,0
;   denseSupportInfillPercentage,70
;   supportLayerInterval,1
;   supportHorizontalPartOffset,0.3
;   supportUpperSeparationLayers,1
;   supportLowerSeparationLayers,1
;   supportType,0
;   supportGridSpacing,4
;   maxOverhangAngle,45
;   supportAngles,0
;   temperatureName,Primary Extruder,bed
;   temperatureNumber,0,0
;   temperatureSetpointCount,1,1
;   temperatureSetpointLayers,1,1
;   temperatureSetpointTemperatures,195,50
;   temperatureStabilizeAtStartup,1,1
;   temperatureHeatedBed,0,1
;   temperatureRelayBetweenLayers,0,0
;   temperatureRelayBetweenLoops,0,0
;   fanLayers,1,2
;   fanSpeeds,0,100
;   blipFanToFullPower,0
;   adjustSpeedForCooling,1
;   minSpeedLayerTime,15
;   minCoolingSpeedSlowdown,20
;   increaseFanForCooling,0
;   minFanLayerTime,45
;   maxCoolingFanSpeed,100
;   increaseFanForBridging,0
;   bridgingFanSpeed,100
;   use5D,1
;   relativeEdistances,0
;   allowEaxisZeroing,1
;   independentExtruderAxes,0
;   includeM10123,0
;   stickySupport,1
;   applyToolheadOffsets,0
;   gcodeXoffset,0
;   gcodeYoffset,0
;   gcodeZoffset,0
;   overrideMachineDefinition,1
;   machineTypeOverride,0
;   strokeXoverride,200
;   strokeYoverride,200
;   strokeZoverride,200
;   originOffsetXoverride,0
;   originOffsetYoverride,0
;   originOffsetZoverride,0
;   homeXdirOverride,-1
;   homeYdirOverride,-1
;   homeZdirOverride,-1
;   flipXoverride,1
;   flipYoverride,-1
;   flipZoverride,1
;   toolheadOffsets,0,0|0,0|0,0|0,0|0,0|0,0
;   overrideFirmwareConfiguration,0
;   firmwareTypeOverride,RepRap (Marlin/Repetier/Sprinter)
;   GPXconfigOverride,r2
;   baudRateOverride,115200
;   overridePrinterModels,0
;   printerModelsOverride
;   startingGcode,G28 ; home all axes
;   layerChangeGcode,
;   retractionGcode,
;   toolChangeGcode,
;   endingGcode,G28 X0 Y0,M104 S0 ; turn off extruder,M140 S0 ; turn off bed,M84 ; disable motors
;   exportFileFormat,gcode
;   celebration,0
;   celebrationSong,Random Song
;   postProcessing,
;   defaultSpeed,3600
;   outlineUnderspeed,0.5
;   solidInfillUnderspeed,0.8
;   supportUnderspeed,0.8
;   rapidXYspeed,4800
;   rapidZspeed,1002
;   minBridgingArea,50
;   bridgingExtraInflation,0
;   bridgingExtrusionMultiplier,1
;   bridgingSpeedMultiplier,1
;   useFixedBridgingAngle,0
;   fixedBridgingAngle,0
;   applyBridgingToPerimeters,0
;   filamentDiameters,1.75|1.75|1.75|1.75|1.75|1.75
;   filamentPricesPerKg,46|46|46|46|46|46
;   filamentDensities,1.25|1.25|1.25|1.25|1.25|1.25
;   useMinPrintHeight,0
;   minPrintHeight,0
;   useMaxPrintHeight,0
;   maxPrintHeight,0
;   useDiaphragm,0
;   diaphragmLayerInterval,20
;   robustSlicing,1
;   mergeAllIntoSolid,0
;   onlyRetractWhenCrossingOutline,1
;   retractBetweenLayers,1
;   useRetractionMinTravel,0
;   retractionMinTravel,3
;   retractWhileWiping,0
;   onlyWipeOutlines,1
;   avoidCrossingOutline,0
;   maxMovementDetourFactor,3
;   toolChangeRetractionDistance,12
;   toolChangeExtraRestartDistance,-0.5
;   toolChangeRetractionSpeed,600
;   externalThinWallType,0
;   internalThinWallType,2
;   thinWallAllowedOverlapPercentage,10
;   singleExtrusionMinLength,1
;   singleExtrusionMinPrintingWidthPercentage,50
;   singleExtrusionMaxPrintingWidthPercentage,200
;   singleExtrusionEndpointExtension,0.2
;   horizontalSizeCompensation,0
G90
M82
M106 S0
M140 S50
M190 S50
M104 S195 T0
M109 S195 T0
G28 ; home all axes
G92 E0
G1 E-10.0000 F4800
G1 Z0.335 F1002
; process Process1
; layer 1, Z = 0.135
T0
; tool H0.150 W0.400
; skirt
G1 X86.328 Y79.874 F4800
G1 Z0.135 F1002
G1 E0.0000 F1440
G92 E0
G1 X86.494 Y79.743 E0.0053 F1800
G1 X87.284 Y79.355 E0.0272
G1 X87.852 Y78.722 E0.0484
G1 X88.026 Y78.597 E0.0538
G1 X88.597 Y78.347 E0.0693
G1 X89.767 Y77.110 E0.1118
G1 X90.110 Y76.949 E0.1212
G1 X93.625 Y76.722 E0.2091
G1 X93.986 Y76.838 E0.2186
G1 X97.409 Y79.631 E0.3288
G1 X97.413 Y79.635 E0.3289
G1 X97.446 Y79.662 E0.3300
G1 X97.450 Y79.665 E0.3301
G1 X99.856 Y81.707 E0.4088
G1 X102.341 Y82.069 E0.4715
G1 X104.821 Y81.691 E0.5341
G1 X107.211 Y79.631 E0.6128
G1 X107.215 Y79.627 E0.6129
G1 X107.249 Y79.599 E0.6140
G1 X107.253 Y79.596 E0.6141
G1 X110.655 Y76.777 E0.7243
G1 X111.015 Y76.659 E0.7338
G1 X114.531 Y76.859 E0.8216
G1 X114.875 Y77.018 E0.8311
G1 X116.055 Y78.246 E0.8736
G1 X116.628 Y78.492 E0.8891
G1 X116.802 Y78.616 E0.8945
G1 X117.375 Y79.245 E0.9157
G1 X118.167 Y79.627 E0.9376
G1 X118.335 Y79.757 E0.9429
G1 X119.905 Y81.622 E1.0037
G1 X120.024 Y81.907 E1.0114
G1 X120.271 Y84.735 E1.0822
G1 X120.204 Y85.036 E1.0899
G1 X114.355 Y95.128 E1.3809
G1 X114.303 Y95.409 E1.3880
G1 X114.218 Y95.609 E1.3935
G1 X113.073 Y97.221 E1.4428
G1 X112.913 Y97.367 E1.4482
G1 X109.543 Y99.298 E1.5451
G1 X108.170 Y114.416 E1.9237
G1 X108.004 Y114.751 E1.9331
G1 X105.448 Y117.094 E2.0196
G1 X105.100 Y117.230 E2.0289
G1 X99.837 Y117.250 E2.1602
G1 X99.488 Y117.116 E2.1695
G1 X96.914 Y114.791 E2.2560
G1 X96.746 Y114.458 E2.2653
G1 X95.263 Y99.350 E2.6440
G1 X91.879 Y97.444 E2.7409
G1 X91.717 Y97.299 E2.7463
G1 X90.561 Y95.696 E2.7956
G1 X90.475 Y95.496 E2.8010
G1 X90.420 Y95.215 E2.8082
G1 X84.498 Y85.167 E3.0991
G1 X84.429 Y84.866 E3.1068
G1 X84.655 Y82.037 E3.1776
G1 X84.772 Y81.751 E3.1853
G1 X86.328 Y79.874 E3.2462
G1 X86.609 Y80.162 F4800
G92 E0
G1 X86.709 Y80.083 E0.0032 F1800
G1 X87.530 Y79.679 E0.0260
G1 X88.121 Y79.021 E0.0481
G1 X88.225 Y78.946 E0.0513
G1 X88.832 Y78.681 E0.0678
G1 X90.005 Y77.440 E0.1104
G1 X90.211 Y77.343 E0.1161
G1 X93.575 Y77.126 E0.2001
G1 X93.791 Y77.196 E0.2058
G1 X97.155 Y79.941 E0.3141
G1 X97.157 Y79.943 E0.3142
G1 X97.189 Y79.969 E0.3152
G1 X97.192 Y79.971 E0.3153
G1 X99.684 Y82.087 E0.3969
G1 X102.342 Y82.474 E0.4639
G1 X104.995 Y82.069 E0.5308
G1 X107.472 Y79.934 E0.6124
G1 X107.474 Y79.932 E0.6124
G1 X107.506 Y79.905 E0.6135
G1 X107.508 Y79.903 E0.6136
G1 X110.852 Y77.134 E0.7219
G1 X111.068 Y77.063 E0.7275
G1 X114.433 Y77.254 E0.8116
G1 X114.639 Y77.349 E0.8173
G1 X115.823 Y78.582 E0.8599
G1 X116.431 Y78.843 E0.8764
G1 X116.535 Y78.917 E0.8796
G1 X117.132 Y79.571 E0.9017
G1 X117.956 Y79.969 E0.9245
G1 X118.056 Y80.047 E0.9277
G1 X119.559 Y81.833 E0.9859
G1 X119.630 Y82.004 E0.9905
G1 X119.867 Y84.708 E1.0582
G1 X119.827 Y84.889 E1.0629
G1 X113.975 Y94.987 E1.3540
G1 X113.917 Y95.293 E1.3618
G1 X113.867 Y95.413 E1.3650
G1 X112.772 Y96.954 E1.4122
G1 X112.676 Y97.041 E1.4154
G1 X109.164 Y99.054 E1.5164
G1 X107.778 Y114.305 E1.8984
G1 X107.679 Y114.506 E1.9040
G1 X105.232 Y116.749 E1.9868
G1 X105.024 Y116.831 E1.9924
G1 X99.910 Y116.849 E2.1199
G1 X99.700 Y116.769 E2.1255
G1 X97.238 Y114.544 E2.2083
G1 X97.137 Y114.344 E2.2139
G1 X95.640 Y99.103 E2.5959
G1 X92.113 Y97.116 E2.6969
G1 X92.016 Y97.029 E2.7002
G1 X90.911 Y95.497 E2.7473
G1 X90.859 Y95.377 E2.7506
G1 X90.800 Y95.071 E2.7583
G1 X84.874 Y85.017 E3.0495
G1 X84.832 Y84.836 E3.0541
G1 X85.049 Y82.130 E3.1218
G1 X85.119 Y81.959 E3.1264
G1 X86.609 Y80.162 E3.1847
G1 X86.890 Y80.450 F4800
G92 E0
G1 X86.923 Y80.424 E0.0011 F1800
G1 X87.776 Y80.004 E0.0248
G1 X88.390 Y79.320 E0.0477
G1 X88.425 Y79.295 E0.0488
G1 X89.066 Y79.015 E0.0662
G1 X90.244 Y77.770 E0.1090
G1 X90.312 Y77.738 E0.1109
G1 X93.525 Y77.530 E0.1912
G1 X93.597 Y77.553 E0.1931
G1 X96.902 Y80.250 E0.2994
G1 X96.933 Y80.276 E0.3004
G1 X99.513 Y82.466 E0.3848
G1 X102.344 Y82.878 E0.4562
G1 X105.169 Y82.447 E0.5275
G1 X107.732 Y80.238 E0.6119
G1 X107.764 Y80.211 E0.6129
G1 X111.049 Y77.490 E0.7193
G1 X111.121 Y77.466 E0.7212
G1 X114.334 Y77.649 E0.8015
G1 X114.403 Y77.681 E0.8033
G1 X115.591 Y78.918 E0.8461
G1 X116.234 Y79.194 E0.8636
G1 X116.269 Y79.218 E0.8646
G1 X116.888 Y79.898 E0.8876
G1 X117.744 Y80.311 E0.9113
G1 X117.777 Y80.337 E0.9123
G1 X119.214 Y82.043 E0.9680
G1 X119.237 Y82.100 E0.9695
G1 X119.463 Y84.682 E1.0342
G1 X119.450 Y84.742 E1.0357
G1 X113.594 Y94.846 E1.3270
G1 X113.532 Y95.177 E1.3354
G1 X113.515 Y95.217 E1.3365
G1 X112.472 Y96.687 E1.3815
G1 X112.439 Y96.716 E1.3825
G1 X108.784 Y98.810 E1.4876
G1 X107.387 Y114.195 E1.8730
G1 X107.354 Y114.262 E1.8748
G1 X105.017 Y116.404 E1.9539
G1 X104.948 Y116.431 E1.9558
G1 X99.983 Y116.449 E2.0796
G1 X99.913 Y116.422 E2.0815
G1 X97.561 Y114.298 E2.1606
G1 X97.527 Y114.231 E2.1624
G1 X96.018 Y98.857 E2.5478
G1 X92.348 Y96.789 E2.6529
G1 X92.315 Y96.760 E2.6539
G1 X91.261 Y95.298 E2.6989
G1 X91.243 Y95.258 E2.7000
G1 X91.179 Y94.928 E2.7084
G1 X85.250 Y84.867 E2.9997
G1 X85.236 Y84.807 E3.0012
G1 X85.443 Y82.224 E3.0659
G1 X85.466 Y82.167 E3.0674
G1 X86.890 Y80.450 E3.1231
G92 E0
G1 E-10.0000 F4800
G1 Z0.335 F1002
; inner perimeter
G1 X91.739 Y83.798 F4800
G1 Z0.135 F1002
G1 E0.0000 F4800
G92 E0
G1 X93.032 Y83.816 E0.0323 F1350
G1 X93.576 Y84.264 E0.0498
G1 X93.645 Y84.306 E0.0518
G1 X97.497 Y87.575 E0.1779
G1 X97.959 Y87.495 E0.1896
G1 X102.362 Y88.135 E0.3006
G1 X106.759 Y87.465 E0.4115
G1 X107.223 Y87.542 E0.4233
G1 X111.051 Y84.242 E0.5493
G1 X111.120 Y84.200 E0.5513
G1 X111.660 Y83.748 E0.5689
G1 X112.953 Y83.721 E0.6012
G1 X113.115 Y84.656 E0.6248
G1 X113.491 Y84.667 E0.6342
G1 X112.848 Y85.788 E0.6665
G1 X108.747 Y92.838 E0.8699
G1 X103.081 Y96.085 E1.0328
G1 X103.751 Y96.733 E1.0561
G1 X102.603 Y109.374 E1.3727
G1 X102.276 Y109.375 E1.3809
G1 X101.035 Y96.743 E1.6975
G1 X101.701 Y96.090 E1.7208
G1 X96.011 Y92.885 E1.8837
G1 X91.859 Y85.864 E2.0871
G1 X91.208 Y84.748 E2.1194
G1 X91.584 Y84.735 E2.1287
G1 X91.739 Y83.798 E2.1524
G1 X91.401 Y83.394 F4800
G92 E0
G1 X92.508 Y83.409 E0.0276 F1350
G1 X92.553 Y83.136 E0.0345
G1 X92.748 Y83.063 E0.0397
G1 X93.807 Y83.937 E0.0740
G1 X93.879 Y83.980 E0.0760
G1 X97.613 Y87.149 E0.1982
G1 X97.953 Y87.090 E0.2068
G1 X102.360 Y87.731 E0.3179
G1 X106.762 Y87.060 E0.4290
G1 X107.104 Y87.117 E0.4376
G1 X110.814 Y83.918 E0.5598
G1 X110.886 Y83.874 E0.5619
G1 X111.939 Y82.993 E0.5962
G1 X112.134 Y83.065 E0.6014
G1 X112.181 Y83.337 E0.6082
G1 X113.288 Y83.314 E0.6359
G1 X113.453 Y84.265 E0.6600
G1 X114.171 Y84.286 E0.6779
G1 X113.194 Y85.988 E0.7268
G1 X109.039 Y93.132 E0.9330
G1 X103.742 Y96.167 E1.0853
G1 X104.167 Y96.578 E1.1000
G1 X102.798 Y111.649 E1.4775
G1 X102.448 Y111.658 E1.4863
G1 X102.097 Y111.652 E1.4950
G1 X100.619 Y96.591 E1.8725
G1 X101.040 Y96.177 E1.8873
G1 X95.721 Y93.180 E2.0396
G1 X91.514 Y86.066 E2.2457
G1 X90.525 Y84.372 E2.2947
G1 X91.243 Y84.346 E2.3126
G1 X91.401 Y83.394 E2.3367
; outer perimeter
G1 X91.062 Y82.989 F4800
G92 E0
G1 X92.170 Y83.004 E0.0276 F900
G1 X92.306 Y82.181 E0.0484
G1 X94.039 Y83.610 E0.1045
G1 X94.114 Y83.654 E0.1066
G1 X97.729 Y86.723 E0.2249
G1 X97.948 Y86.684 E0.2305
G1 X102.359 Y87.326 E0.3417
G1 X106.765 Y86.654 E0.4528
G1 X106.985 Y86.691 E0.4584
G1 X110.577 Y83.594 E0.5767
G1 X110.651 Y83.549 E0.5789
G1 X112.374 Y82.108 E0.6349
G1 X112.517 Y82.930 E0.6557
G1 X113.624 Y82.906 E0.6834
G1 X113.792 Y83.875 E0.7079
G1 X114.851 Y83.905 E0.7343
G1 X113.541 Y86.187 E0.7999
G1 X109.408 Y93.294 E1.0050
G1 X109.389 Y93.392 E1.0075
G1 X104.403 Y96.250 E1.1509
G1 X104.583 Y96.424 E1.1571
G1 X103.164 Y112.041 E1.5483
G1 X102.449 Y112.058 E1.5662
G1 X101.734 Y112.046 E1.5840
G1 X100.202 Y96.439 E1.9752
G1 X100.380 Y96.264 E1.9814
G1 X95.373 Y93.443 E2.1248
G1 X95.354 Y93.345 E2.1273
G1 X91.169 Y86.269 E2.3324
G1 X89.842 Y83.996 E2.3980
G1 X90.901 Y83.958 E2.4244
G1 X91.062 Y82.989 E2.4490
G92 E0
G1 E-10.0000 F4800
G1 Z0.335 F1002
; gap fill
G1 X102.365 Y109.719 F4800
G1 Z0.135 F1002
G1 E0.0000 F4800
G92 E0
G1 X102.606 Y109.960 E0.0085 F1440
G1 X102.559 Y110.479 E0.0215
G1 X102.303 Y110.222 E0.0306
G1 X102.364 Y110.849 E0.0463
G1 X102.512 Y110.997 E0.0515
; solid layer
G1 X102.477 Y107.003 F4800
G92 E0
G1 X102.374 Y106.900 E0.0036 F1440
G1 X102.313 Y106.272 E0.0194
G1 X102.524 Y106.484 E0.0268
G1 X102.571 Y105.966 E0.0398
G1 X102.251 Y105.645 E0.0511
G1 X102.190 Y105.018 E0.0668
G1 X102.618 Y105.447 E0.0820
G1 X102.666 Y104.928 E0.0950
G1 X102.128 Y104.391 E0.1139
G1 X102.066 Y103.763 E0.1296
G1 X102.713 Y104.410 E0.1524
G1 X102.760 Y103.891 E0.1654
G1 X102.005 Y103.136 E0.1921
G1 X101.943 Y102.509 E0.2078
G1 X102.807 Y103.373 E0.2383
G1 X102.854 Y102.854 E0.2512
G1 X101.882 Y101.882 E0.2856
G1 X101.820 Y101.254 E0.3013
G1 X102.901 Y102.335 E0.3394
G1 X102.948 Y101.817 E0.3524
G1 X101.758 Y100.627 E0.3944
G1 X101.697 Y100.000 E0.4101
G1 X102.995 Y101.298 E0.4559
G1 X103.042 Y100.780 E0.4689
G1 X101.635 Y99.373 E0.5185
G1 X101.574 Y98.745 E0.5343
G1 X103.089 Y100.261 E0.5877
G1 X103.137 Y99.742 E0.6007
G1 X101.512 Y98.118 E0.6580
G1 X101.450 Y97.491 E0.6737
G1 X103.184 Y99.224 E0.7349
G1 X103.231 Y98.705 E0.7479
G1 X101.393 Y96.868 E0.8127
G1 X101.679 Y96.588 E0.8227
G1 X103.278 Y98.187 E0.8791
G1 X103.325 Y97.668 E0.8921
G1 X101.964 Y96.308 E0.9401
G1 X95.771 Y91.812 F4800
G92 E0
G1 X97.026 Y93.066 E0.0443 F1440
G1 X98.322 Y93.796 E0.0814
G1 X94.953 Y90.427 E0.2002
G1 X94.134 Y89.043 E0.2403
G1 X99.617 Y94.526 E0.4338
G1 X100.913 Y95.256 E0.4709
G1 X93.316 Y87.659 E0.7389
G1 X92.497 Y86.274 E0.7790
G1 X102.209 Y95.986 E1.1216
G1 X102.262 Y96.016 E1.1231
G1 X102.250 Y96.028 E1.1235
G1 X103.372 Y97.149 E1.1631
G1 X103.398 Y96.864 E1.1703
G1 X102.519 Y96.015 E1.2007
G1 X102.700 Y95.912 E1.2059
G1 X91.853 Y85.065 E1.5886
G1 X91.874 Y85.065 E1.5891
G1 X91.951 Y84.597 E1.6009
G1 X103.060 Y95.706 E1.9928
G1 X103.419 Y95.500 E2.0031
G1 X92.062 Y84.143 E2.4037
G1 X92.636 Y84.151 E2.4181
G1 X103.779 Y95.294 E2.8111
G1 X104.138 Y95.087 E2.8215
